tupperware/app/img/print.svg

<svg width="15" height="14" viewBox="0 0 15 14" fill="none" xmlns="http://www.w3.org/2000/svg">
<path d="M2.33306 2.63023C2.33306 2.57045 2.33306 2.53459 2.33306 2.48676C2.33306 1.98463 2.34528 1.48249 2.33306 0.980359C2.32085 0.538002 2.56515 0.203245 2.95603 0.059778C3.06596 0.0239112 3.20033 0 3.31026 0C5.13029 0 6.95033 0 8.77036 0C9.73534 0 10.7003 0 11.6653 0C12.0318 0 12.3249 0.143467 12.5326 0.442357C12.6303 0.585824 12.6669 0.753202 12.6669 0.920581C12.6669 1.43467 12.6669 1.96072 12.6669 2.47481C12.6669 2.51067 12.6669 2.5585 12.6669 2.61828C12.7036 2.61828 12.7402 2.61828 12.7891 2.61828C13.0945 2.61828 13.3998 2.61828 13.693 2.61828C14.1938 2.61828 14.5847 2.83348 14.8412 3.25192C14.9511 3.43126 15 3.6345 15 3.83775C15 4.73442 15 5.63109 15 6.52775C15 6.70709 15 6.88642 15 7.06576C15 7.68745 15 8.30914 15 8.93083C15 9.21776 14.7679 9.5047 14.4259 9.49274C13.8762 9.48079 13.3388 9.49274 12.7891 9.49274C12.6914 9.49274 12.6669 9.51665 12.6669 9.6123C12.6669 10.7481 12.6669 11.8839 12.6669 13.0077C12.6669 13.45 12.4349 13.7728 12.0073 13.9283C11.9096 13.9641 11.7997 13.9761 11.6897 13.9761C8.89251 13.9761 6.09528 13.9761 3.29805 13.9761C2.88274 13.9761 2.5285 13.7489 2.38192 13.3664C2.34528 13.2588 2.32085 13.1272 2.32085 13.0077C2.32085 11.8839 2.32085 10.76 2.32085 9.62425C2.32085 9.48079 2.32085 9.48079 2.17427 9.48079C1.64902 9.48079 1.12378 9.46883 0.598534 9.48079C0.21987 9.54056 0 9.22972 0 8.93083C0.012215 8.34501 0 7.77114 0 7.19727C0 6.09735 0 4.98548 0.012215 3.88557C0.012215 3.37148 0.256515 3.00085 0.720684 2.76174C0.891694 2.67805 1.07492 2.64219 1.27036 2.64219C1.58795 2.64219 1.89332 2.64219 2.21091 2.64219C2.23534 2.63023 2.27199 2.63023 2.33306 2.63023ZM3.1759 7.61571C3.1759 7.66354 3.1759 7.68745 3.1759 7.72331C3.1759 9.49274 3.1759 11.2622 3.1759 13.0316C3.1759 13.187 3.21254 13.2229 3.37134 13.2229C4.82492 13.2229 6.29072 13.2229 7.7443 13.2229C9.03909 13.2229 10.3339 13.2229 11.6287 13.2229C11.7997 13.2229 11.8363 13.187 11.8363 13.0196C11.8363 11.2502 11.8363 9.49274 11.8363 7.72331C11.8363 7.68745 11.8363 7.65158 11.8241 7.61571C8.94137 7.61571 6.05863 7.61571 3.1759 7.61571ZM11.8241 2.63023C11.8241 2.59436 11.8241 2.5585 11.8241 2.52263C11.8241 2.00854 11.8241 1.49445 11.8241 0.980359C11.8241 0.824936 11.7875 0.789069 11.6287 0.789069C8.88029 0.789069 6.13192 0.789069 3.37134 0.789069C3.20033 0.789069 3.1759 0.824936 3.1759 0.980359C3.1759 1.49445 3.1759 2.00854 3.1759 2.52263C3.1759 2.5585 3.1759 2.59436 3.1759 2.63023C6.07085 2.63023 8.94137 2.63023 11.8241 2.63023ZM11.8363 4.56704C11.8363 4.87788 12.0073 5.04526 12.3127 5.06917C12.5936 5.08113 12.8257 4.79419 12.8257 4.57899C12.8135 4.26815 12.5692 4.07686 12.3127 4.0649C12.0318 4.05295 11.8363 4.26815 11.8363 4.56704Z" fill="#009ABE"/>
<path d="M7.4743 12.5056C6.46046 12.5056 5.4344 12.5056 4.42056 12.5056C4.26176 12.5056 4.13961 12.4578 4.04189 12.3382C3.94417 12.2067 3.94417 12.0632 3.99303 11.9198C4.06632 11.7644 4.20069 11.6807 4.3717 11.6807C4.73815 11.6807 5.09238 11.6807 5.45883 11.6807C7.1445 11.6807 8.83016 11.6807 10.5158 11.6807C10.6746 11.6807 10.7968 11.7165 10.8945 11.848C11.0044 11.9796 11.0044 12.123 10.9434 12.2665C10.8823 12.41 10.7479 12.4936 10.5769 12.5056C10.5158 12.5056 10.4548 12.5056 10.3937 12.5056C9.4287 12.5056 8.4515 12.5056 7.4743 12.5056Z" fill="#009ABE"/>
<path d="M7.47563 9.3015C6.44957 9.3015 5.43573 9.3015 4.40967 9.3015C4.26309 9.3015 4.14094 9.25368 4.04322 9.14608C3.9455 9.01456 3.93329 8.85914 3.99436 8.72763C4.06765 8.56025 4.21423 8.47656 4.39746 8.47656C5.02042 8.47656 5.64339 8.47656 6.26635 8.47656C7.68329 8.47656 9.11244 8.47656 10.5294 8.47656C10.676 8.47656 10.7981 8.51243 10.8958 8.62003C11.018 8.75154 11.0302 8.90696 10.9569 9.06239C10.8836 9.21781 10.737 9.3015 10.566 9.3015C10.1996 9.3015 9.82091 9.3015 9.45446 9.3015C8.79485 9.3015 8.13524 9.3015 7.47563 9.3015Z" fill="#009ABE"/>
<path d="M7.47554 10.8794C6.44948 10.8794 5.43564 10.8794 4.40958 10.8794C4.20192 10.8794 4.03091 10.7718 3.98205 10.5925C3.92098 10.4012 3.99427 10.2099 4.17749 10.1142C4.25078 10.0784 4.36072 10.0664 4.44622 10.0664C5.19134 10.0664 5.93645 10.0664 6.69378 10.0664C7.96414 10.0664 9.2345 10.0664 10.5049 10.0664C10.6637 10.0664 10.8102 10.0903 10.908 10.2338C11.0912 10.4849 10.9324 10.8316 10.6148 10.8794C10.5781 10.8794 10.5537 10.8794 10.5171 10.8794C9.50323 10.8794 8.48938 10.8794 7.47554 10.8794Z" fill="#009ABE"/>
</svg>

<svg width="15" height="14" fill="none" xmlns="http://www.w3.org/2000/svg"><path d="M2.333 2.63v-.143c0-.502.012-1.005 0-1.507a.915.915 0 0 1 .623-.92C3.066.024 3.2 0 3.31 0h8.355c.367 0 .66.143.868.442.097.144.134.311.134.479v1.697h1.026c.5 0 .892.215 1.148.634.11.18.159.383.159.586V8.93a.56.56 0 0 1-.574.562c-.55-.012-1.087 0-1.637 0-.098 0-.122.024-.122.12v3.395c0 .442-.232.765-.66.92a.93.93 0 0 1-.317.048H3.298c-.415 0-.77-.227-.916-.61a1.165 1.165 0 0 1-.061-.358V9.624c0-.143 0-.143-.147-.143-.525 0-1.05-.012-1.575 0C.219 9.54 0 9.23 0 8.93c.012-.586 0-1.16 0-1.734 0-1.1 0-2.212.012-3.311 0-.515.245-.885.709-1.124.17-.084.354-.12.55-.12h.94c.024-.012.061-.012.122-.012zm.843 4.986v5.416c0 .155.037.19.195.19h8.258c.17 0 .207-.035.207-.202V7.723c0-.036 0-.071-.012-.107H3.176zm8.648-4.986v-.107V.98c0-.155-.037-.19-.195-.19H3.37c-.17 0-.195.035-.195.19v1.65h8.648zm.012 1.937c0 .31.171.478.477.502.28.012.513-.275.513-.49a.53.53 0 0 0-.513-.514c-.281-.012-.477.203-.477.502z" fill="#009ABE"/><path d="M7.474 12.506H4.421a.451.451 0 0 1-.38-.168c-.097-.131-.097-.275-.048-.418a.399.399 0 0 1 .379-.24h6.144c.159 0 .28.037.379.168.11.132.11.275.048.418-.06.144-.195.228-.366.24H7.474zM7.476 9.302H4.41a.47.47 0 0 1-.367-.156.404.404 0 0 1-.049-.418c.074-.168.22-.251.403-.251h6.132c.147 0 .27.035.367.143.122.132.134.287.06.442a.416.416 0 0 1-.39.24h-3.09zM7.476 10.88H4.41c-.208 0-.38-.108-.428-.288a.388.388 0 0 1 .195-.478.671.671 0 0 1 .27-.048h6.057c.16 0 .306.024.404.168.183.25.024.598-.293.645H7.476z" fill="#009ABE"/></svg>
